packages/ffe-icons/icons/filled/md/lab_profile.svg

<svg xmlns="http://www.w3.org/2000/svg" height="24" viewBox="0 -960 960 960" width="24"><path d="M360-490.001h240q12.75 0 21.375-8.628 8.624-8.629 8.624-21.384 0-12.756-8.624-21.371-8.625-8.615-21.375-8.615H360q-12.75 0-21.374 8.628-8.625 8.629-8.625 21.384 0 12.756 8.625 21.371 8.624 8.615 21.374 8.615Zm0-160h240q12.75 0 21.375-8.628 8.624-8.629 8.624-21.384 0-12.756-8.624-21.371-8.625-8.615-21.375-8.615H360q-12.75 0-21.374 8.628-8.625 8.629-8.625 21.384 0 12.756 8.625 21.371 8.624 8.615 21.374 8.615ZM777.229-151.77 627.761-345.775q-15.685-21.147-38.377-32.686-22.692-11.538-49.384-11.538H180.001v-397.692q0-30.308 21-51.308t51.308-21h455.382q30.308 0 51.308 21t21 51.308v615.382q0 5.55-.693 10.544-.692 4.995-2.077 9.995Zm-524.92 51.769q-30.308 0-51.308-21t-21-51.308v-157.692H540q12.331 0 22.813 5.518 10.481 5.519 17.88 15.329L735.23-106.848q-6.154 3.539-13.192 5.193-7.039 1.654-14.347 1.654H252.309Z"/></svg>

<svg xmlns="http://www.w3.org/2000/svg" height="24" viewBox="0 -960 960 960" width="24"><path d="M360-490h240q12.75 0 21.37-8.63 8.63-8.63 8.63-21.38 0-12.76-8.63-21.37Q612.75-550 600-550H360q-12.75 0-21.37 8.63-8.63 8.63-8.63 21.38 0 12.76 8.63 21.37Q347.25-490 360-490Zm0-160h240q12.75 0 21.37-8.63 8.63-8.63 8.63-21.38 0-12.76-8.63-21.37Q612.75-710 600-710H360q-12.75 0-21.37 8.63-8.63 8.63-8.63 21.38 0 12.76 8.63 21.37Q347.25-650 360-650Zm417.23 498.23L627.76-345.78q-15.68-21.14-38.38-32.68Q566.69-390 540-390H180v-397.69Q180-818 201-839q21-21 51.31-21h455.38Q738-860 759-839q21 21 21 51.31v615.38q0 5.55-.69 10.55-.7 4.99-2.08 9.99ZM252.31-100Q222-100 201-121q-21-21-21-51.31V-330h360q12.33 0 22.81 5.52 10.48 5.52 17.88 15.33l154.54 202.3q-6.15 3.54-13.19 5.19Q715-100 707.69-100H252.31Z"/></svg>
